build/system/CloudUploadOutline.svg

<svg xmlns="http://www.w3.org/2000/svg" fill="none" viewBox="0 0 24 24" focusable="false"><path d="M0 0H24V24H0z"/><path fill="#74767B" fill-rule="evenodd" d="M17.554 18.9756L5.33569 18.9756C3.49533 18.9756 2.00342 17.4837 2.00342 15.6433C2.00342 13.803 3.49533 12.3111 5.33569 12.3111C5.40499 12.3111 5.45825 12.2478 5.44521 12.1798C5.37349 11.8054 5.33594 11.4188 5.33594 11.0235C5.33594 7.64948 8.07111 4.91431 11.4451 4.91431C14.4774 4.91431 16.9937 7.1235 17.4723 10.0202C17.4789 10.0601 17.5136 10.0895 17.554 10.0895C20.0079 10.0895 21.9971 12.0788 21.9971 14.5326C21.9971 16.9864 20.0079 18.9756 17.554 18.9756ZM5.34194 17.6756L5.33955 17.6756L5.33569 17.6756C4.2133 17.6756 3.30342 16.7657 3.30342 15.6433C3.30342 14.5209 4.2133 13.6111 5.33569 13.6111C6.20468 13.6111 6.89164 12.8207 6.72199 11.9352C6.66563 11.641 6.63594 11.3363 6.63594 11.0235C6.63594 8.36745 8.78908 6.21431 11.4451 6.21431C13.8309 6.21431 15.8131 7.95283 16.1897 10.2321C16.2999 10.899 16.8767 11.3895 17.554 11.3895C19.2899 11.3895 20.6971 12.7967 20.6971 14.5326C20.6971 16.2684 19.2899 17.6756 17.554 17.6756L17.5489 17.6756L12.5935 17.6756L12.5935 14.2651L14.079 15.8228C14.319 16.0828 14.729 16.1028 14.999 15.8628C15.139 15.7328 15.209 15.5628 15.209 15.3828C15.209 15.2228 15.159 15.0728 15.039 14.9428L12.4635 12.2328C12.1835 11.9228 11.7035 11.9228 11.4235 12.2328L8.95898 14.9428C8.71898 15.2128 8.73898 15.6228 8.99898 15.8628C9.26898 16.1027 9.67898 16.0928 9.91898 15.8228L11.2935 14.2722L11.2935 17.6756L5.34194 17.6756Z"/></svg>

<svg xmlns="http://www.w3.org/2000/svg" fill="none" viewBox="0 0 24 24" focusable="false"><path fill="#74767B" fill-rule="evenodd" d="M17.55 18.97H5.33C3.49 18.97 2 17.48 2 15.64s1.49-3.33 3.33-3.33c.07 0 .12-.07.11-.14a6.11 6.11 0 0 1 6-7.26c3.03 0 5.55 2.21 6.03 5.11 0 .04.04.06.08.06a4.445 4.445 0 0 1 0 8.89m-12.21-1.3h-.01c-1.12 0-2.03-.91-2.03-2.03s.91-2.03 2.03-2.03c.87 0 1.56-.79 1.39-1.68a4.806 4.806 0 0 1 4.72-5.72c2.39 0 4.37 1.74 4.74 4.02.11.66.69 1.15 1.37 1.15 1.74 0 3.14 1.41 3.14 3.15 0 1.73-1.4 3.14-3.14 3.14h-4.96v-3.41l1.48 1.56c.24.26.65.28.92.04.14-.13.21-.3.21-.48 0-.16-.05-.31-.17-.44l-2.57-2.71a.7.7 0 0 0-1.04 0l-2.47 2.71c-.24.27-.22.68.04.92.27.24.68.23.92-.04l1.38-1.55v3.4z"/></svg>
